assets/misc-grey/MiscGrey38.svg

<svg width="44" height="30" viewBox="0 0 44 30" fill="none" xmlns="http://www.w3.org/2000/svg">
<path fill-rule="evenodd" clip-rule="evenodd" d="M22.398 19.6801C19.775 19.6801 17.642 17.5401 17.642 14.9201C17.642 12.3001 19.775 10.1701 22.398 10.1701C25.021 10.1701 27.155 12.3001 27.155 14.9201C27.155 17.5401 25.021 19.6801 22.398 19.6801ZM22.398 6.99006C18.026 6.99006 14.47 10.5501 14.47 14.9201C14.47 19.2901 18.026 22.8501 22.398 22.8501C26.77 22.8501 30.326 19.2901 30.326 14.9201C30.326 10.5501 26.77 6.99006 22.398 6.99006ZM22.776 26.5601C16.562 26.8301 10.337 22.8401 4.266 14.6501C6.291 11.9301 13.066 3.80006 21.806 3.56006C27.931 3.43006 33.993 7.15006 39.765 14.7301C37.893 17.5301 31.442 26.1701 22.776 26.5601ZM42.969 13.7201C36.346 4.67006 29.193 0.150061 21.702 0.390061C9.584 0.740061 1.329 13.2601 0.982996 13.7901C0.628996 14.3401 0.645996 15.0501 1.023 15.5801C7.731 24.9901 14.833 29.7501 22.146 29.7501C22.404 29.7501 22.663 29.7401 22.921 29.7301C34.929 29.1801 42.733 16.0201 43.059 15.4601C43.376 14.9101 43.341 14.2301 42.969 13.7201Z" fill="#1A1919"/>
</svg>

<svg xmlns="http://www.w3.org/2000/svg" viewBox="0 0 44 30"><path fill-rule="evenodd" d="M22.398 19.68a4.766 4.766 0 01-4.756-4.76 4.758 4.758 0 019.513 0c0 2.62-2.134 4.76-4.757 4.76zm0-12.69c-4.372 0-7.928 3.56-7.928 7.93 0 4.37 3.556 7.93 7.928 7.93s7.928-3.56 7.928-7.93c0-4.37-3.556-7.93-7.928-7.93zm.378 19.57c-6.214.27-12.439-3.72-18.51-11.91 2.025-2.72 8.8-10.85 17.54-11.09 6.125-.13 12.187 3.59 17.959 11.17-1.872 2.8-8.323 11.44-16.989 11.83zm20.193-12.84C36.346 4.67 29.193.15 21.702.39 9.584.74 1.329 13.26.983 13.79c-.354.55-.337 1.26.04 1.79 6.708 9.41 13.81 14.17 21.123 14.17.258 0 .517-.01.775-.02 12.008-.55 19.812-13.71 20.138-14.27.317-.55.282-1.23-.09-1.74z" clip-rule="evenodd"/></svg>
